X:351
T:Three Jolly Sheepskins
T:Tom Long's Post
R:polka 16 reel
O:England
M:2/4
L:1/16
Q:1/4=70
K:A
ABcd efec|dedB cdcB|\
ABcd edea|1fdBG A2cB:|2fdBG A4|]
|:B2E2 B2E2|d2d2 cdec|\
B2E2 B2E2|1EdcB A2c/B/A:|2EdcB A2cB||

